X:1
T:Der er et yndigt Land
T:Der er et yndigt Land
T:Hans Ernst Krøyer (1798-1879)
C:Hans Ernst Krøyer (1798-1879)
%%score [ 1 2 3 4 ]
L:1/8
M:4/4
K:D
V:1 treble nm="Soprano"
V:2 treble nm="Alto"
V:3 treble-8 nm="Tenor"
V:4 bass nm="Bass"
V:1
 D2 | A3 A F2 D2 | B6 z D | d3 d c2 B2 | B2 A2 z2 A2 | C3 C D2 E2 | F2 ^G2 A2 B2 | A4 ^G4 | %8
w: Der|er et yn- digt|Land, det|står med bre- de|Bø- ge nær|sal- ten Ø- ster-|strand, nær sal- ten|Ø- ster-|
 A6 z A | c3 c B2 A2 | A3 d d2 F2 | B3 B B2 B2 | B4 ^A2 z =A | A2 ^G2 =G2 F2 | %14
w: strand; det|bug- ter sig i|Bak- ke, Dal, det|hed- der gam- le|Dan- mark, og|det er Frej- as|
 (B2 d2) z d c3/2 B/ | (B2 A4) C2 | D6 |] %17
w: Sal, _ og det er|Frej- * as|Sal.|
V:2
 D2 | D3 D D2 D2 | D6 z D | G3 G G2 G2 | G2 F2 z2 D2 | A,3 A, A,2 A,2 | D2 E2 E2 F2 | E4 E4 | %8
w: Der|er et yn- digt|Land, det|står med bre- de|Bø- ge nær|sal- ten Ø- ster-|strand, nær sal- ten|Ø- ster-|
 E6 z A | G3 G G2 G2 | F3 F F2 E2 | D3 ^D E2 ^E2 | F4 F2 z F | F2 E2 E2 D2 | (D2 E2) z E ^E3/2 E/ | %15
w: strand; det|bug- ter sig i|Bak- ke, Dal, det|hed- der gam- le|Dan- mark, og|det er Frej- as|Sal, _ og det er|
 (F2 D2 C2) A,2 | A,6 |] %17
w: Frej- * * as|Sal.|
V:3
 F2 | A3 A A2 F2 | G6 z B | B3 d d2 d2 | d2 d2 z2 A2 | G3 G F2 A2 | A2 B2 A2 d2 | c4 B4 | c6 z c | %9
w: Der|er et yn- digt|Land, det|står med bre- de|Bø- ge nær|sal- ten Ø- ster-|strand, nær sal- ten|Ø- ster-|strand; det|
 e3 e d2 c2 | d3 A A2 ^A2 | B3 B B2 B2 | c4 c2 z c | B2 B2 A2 A2 | B4 z B c3/2 d/ | (d2 F2) G4 | %16
w: bug- ter sig i|Bak- ke, Dal, det|hed- der gam- le|Dan- mark, og|det er Frej- as|Sal, og det er|Frej- * as|
 F6 |] %17
w: Sal.|
V:4
 D,2 | F,3 F, D,2 D,2 | G,,6 z G, | G,3 B, A,2 G,2 | D,2 D,2 z2 F,2 | E,3 E, D,2 C,2 | %6
w: Der|er et yn- digt|Land, det|står med bre- de|Bø- ge nær|sal- ten Ø- ster-|
 D,2 D,2 C,2 D,2 | E,4 E,4 | A,,6 z A, | A,3 A, A,2 A,2 | D,3 D, D,2 C,2 | B,,3 A,, G,,2 G,2 | %12
w: strand, nær sal- ten|Ø- ster-|strand; det|bug- ter sig i|Bak- ke, Dal, det|hed- der gam- le|
 F,4 F,2 z E, | ^D,2 E,2 C,2 =D,2 | ((G,2 ^G,2)) z G, G,3/2 G,/ | A,4 A,,4 | D,6 |] %17
w: Dan- mark, og|det er Frej- as|Sal, _ og det er|Frej- as|Sal.|

